Adwaita++/actions/22/account-edit.svg

<svg height="22" width="22" xmlns="http://www.w3.org/2000/svg">
  <g fill="#444">
    <path d="m6.5 3c-.831 0-1.5.669-1.5 1.5v.5h12v-.5c0-.831-.669-1.5-1.5-1.5zm-1.5 4v2h12v-2zm0 4v2h12v-2zm0 4v2h9.25l1.998047-2z"/>
    <path d="m5 5v2h12v-2zm0 4v2h12v-2zm0 4v2h11.248047l.369141-.369141.382812-.382812v-1.248047zm0 4v.5c0 .831.669 1.5 1.5 1.5h6.5v-.75l1.25-1.25z" opacity=".3"/>
    <path d="m15 3v13.248047l1.617188-1.617188.382812-.382812v-1.248047-2-2-2-2-.5c0-.831-.669-1.5-1.5-1.5z" opacity=".3"/>
    <path d="m18.805711 14c-.09101 0-.182726.03479-.253395.105469l-.697201.703125 1.335814 1.335937.703061-.697265c.141347-.141352.141347-.364012 0-.505372l-.836348-.836425c-.07067-.07068-.160917-.105469-.251931-.105469zm-1.480821 1.338867-3.32489 3.325196v1.335937h1.335814l3.324891-3.325195z"/>
  </g>
</svg>

<svg xmlns="http://www.w3.org/2000/svg" width="22" height="22" version="1.1">
 <defs>
  <style id="current-color-scheme" type="text/css">
   .ColorScheme-Text { color:#444444; } .ColorScheme-Highlight { color:#4285f4; }
  </style>
 </defs>
 <path style="fill:currentColor" class="ColorScheme-Text" d="M 6.5 3 C 5.669 3 5 3.669 5 4.5 L 5 5 L 17 5 L 17 4.5 C 17 3.669 16.331 3 15.5 3 L 6.5 3 z M 5 7 L 5 9 L 17 9 L 17 7 L 5 7 z M 5 11 L 5 13 L 17 13 L 17 11 L 5 11 z M 5 15 L 5 17 L 14.25 17 L 16.248047 15 L 5 15 z"/>
 <path style="opacity:0.3;fill:currentColor" class="ColorScheme-Text" d="M 5 5 L 5 7 L 17 7 L 17 5 L 5 5 z M 5 9 L 5 11 L 17 11 L 17 9 L 5 9 z M 5 13 L 5 15 L 16.248047 15 L 16.617188 14.630859 L 17 14.248047 L 17 13 L 5 13 z M 5 17 L 5 17.5 C 5 18.331 5.669 19 6.5 19 L 13 19 L 13 18.25 L 14.25 17 L 5 17 z"/>
 <path style="opacity:0.3;fill:currentColor" class="ColorScheme-Text" d="M 15 3 L 15 16.248047 L 16.617188 14.630859 L 17 14.248047 L 17 13 L 17 11 L 17 9 L 17 7 L 17 5 L 17 4.5 C 17 3.669 16.331 3 15.5 3 L 15 3 z"/>
 <path style="fill:currentColor" class="ColorScheme-Text" d="m 18.805711,14 c -0.09101,0 -0.182726,0.03479 -0.253395,0.105469 l -0.697201,0.703125 1.335814,1.335937 0.703061,-0.697265 c 0.141347,-0.141352 0.141347,-0.364012 0,-0.505372 L 19.057642,14.105469 C 18.986972,14.034789 18.896725,14 18.805711,14 Z M 17.32489,15.338867 14,18.664063 V 20 h 1.335814 l 3.324891,-3.325195 z"/>
</svg>
